assets/images/avatar/Avatar 14.svg

<svg fill="none" height="128" viewBox="0 0 128 128" width="128" xmlns="http://www.w3.org/2000/svg" xmlns:xlink="http://www.w3.org/1999/xlink"><mask id="a" height="110" maskUnits="userSpaceOnUse" width="116" x="6" y="9"><path clip-rule="evenodd" d="m59.4286 9.20941c17.0987-.42054 36.1821.83579 48.1334 13.08239 12.973 13.2938 16.906 34.131 11.154 51.7998-5.289 16.2448-22.6279 22.9767-37.9506 30.5074-15.5545 7.644-32.2155 18.89-48.0003 11.734-16.0084-7.258-20.2152-26.9679-23.65251-44.2179-3.27832-16.4523-5.57338-34.8268 5.36991-47.5341 10.6341-12.3483 28.6633-14.97111 44.9461-15.37159z" fill="#eff6f7" fill-rule="evenodd"/></mask><g mask="url(#a)"><path clip-rule="evenodd" d="m59.5881 13.503c17.0987-.4205 36.0226-3.4578 47.9739 8.7888 12.973 13.2939 16.906 34.131 11.154 51.7999-5.289 16.2448-22.6279 22.9766-37.9506 30.5073-15.5545 7.644-32.2155 18.89-48.0003 11.734-16.0084-7.258-20.2152-26.9679-23.65251-44.2179-3.27832-16.4523-5.57338-34.8268 5.36991-47.534 10.6341-12.3483 28.8228-10.6776 45.1056-11.0781z" fill="#eff6f7" fill-rule="evenodd"/><path d="m100.678 96.8132c-3.8125-1.9535-7.9785-3.2335-12.0044-4.6476-3.2519-1.1429-6.7505-1.9383-9.8103-3.6571-3.6937-2.0572-5.4857-5.3181-6.1623-9.4477-.8259-5.0011-.3475-11.3279-.3475-14.3817 0-6.8358-6.1165-10.3619-12.5348-11.1238-.022-.0138-.0467-.0228-.0724-.0265-.0257-.0036-.0519-.0019-.0769.0052-.0518 0-.1006-.0152-.1524-.0183-6.4152.7863-12.5318 4.3276-12.5318 11.1634 0 3.0477.4754 9.3775-.3505 14.3787-.6095 3.7059-2.4076 7.3143-5.8301 9.1428-4.4647 2.3802-9.5695 3.7212-14.3238 5.4187-2.6453.9478-5.3242 1.8957-7.8293 3.1787-8.0579 4.13-11.27624 12.416-12.38862 24.201h106.79512c-1.101-11.77-4.322-20.056-12.38-24.1858z" fill="#a9b4c6"/><path d="m113.064 121.014h-106.79197c1.11238-11.788 4.33377-20.074 12.39167-24.2038 2.4746-1.277 5.1504-2.2248 7.7653-3.1604 18.9257 11.0052 42.0906 11.2272 61.8361 2.3558 1.1155-.5029 3.4957-2.368 4.666-2.368 2.6538.8791 5.2442 1.9391 7.7529 3.1726 8.049 4.1388 11.279 12.4248 12.38 24.2038z" fill="#fdd8f8"/><path d="m72.9813 80.3896c-.1005-.4267-.195-.8563-.2681-1.3013-.6796-4.1204-.4754-9.1429-.384-12.4952-3.1665-.0671-9.2709-.3902-12.6476-.4511-3.6054-.0671-9.9688 1.5238-12.605 2.0511.0884 3.2213.1493 7.3721-.4297 10.8769-.5029 3.0476-1.8286 6.0373-4.2088 8.0122 14.0861 4.3063 26.1608-.7497 30.5432-6.6926z" fill="#51527a"/><path d="m52.2728 18.4163c2.5134-1.9643 5.4859-3.2554 8.6369-3.7516 3.2336-.4541 6.9181-.0366 10.0572.7375 6.3692 1.5988 11.8472 5.6525 15.2381 11.2761 1.9688 3.3037 3.8401 7.3875 4.4831 11.1787 2.499 14.7383-2.304 28.6934-11.2153 34.0846 2.045.9448 3.0477 2.7429 2.5265 4.9189-.5211 2.176-2.7428 4.2239-5.0255 5.059 2.4198.5669 3.5809 2.1151 2.8403 4.6659-.5942 2.0541-1.9687 2.8891-3.7333 4.0594 3.9619.5821 3.4621 5.0987-.0304 6.7779 3.1543 3.6113 1.5848 8.2443.7009 10.1153-.8838 1.871-2.2857 3.444-3.3706 5.205-1.085 1.762-1.4385 3.737-1.2983 5.885-1.981-1.655-3.6572-5.394-3.9071-8.838-.2438-3.17.0732-7.82 2.9074-10.9532-3.8156.64-5.0499-3.0171-4.0411-4.6842.2673-.5069.6414-.9498 1.0966-1.2981.4551-.3484.9804-.5938 1.5396-.7194-1.6397.0183-4.1844-.3992-4.7543-2.4381-.4388-1.5786.0213-3.4133 1.3226-4.4129-.8403-.4462-1.5447-1.1109-2.0388-1.924s-.7597-1.7444-.7688-2.6959c-.009-.9514.2388-1.8876.7174-2.7099.4786-.8224 1.1702-1.5003 2.0019-1.9624-6.6773-1.0728-12.541-4.8976-18.1791-8.6309-2.6301-1.7432-5.4857-3.8125-6.0708-6.9181 1.3409 5.0164.8624 10.7155-1.9993 15.0492-2.6057 3.9436-5.4034 3.8948-5.3059 3.7668 1.792-2.3284 3.8736-8.6369 1.3501-13.5466-2.9379-5.7174-6.8876-13.3425-6.2232-20.4556 1.0087-10.8282 7.104-20.8762 16.512-26.3254 1.8499-1.0727 4.1173-1.4171 5.9093-.5059.0183.0126.0404.0186.0626.0169.0221-.0017.0431-.0109.0593-.026z" fill="#28213d"/><path d="m78.9852 43.8151c-.9143-6.5676-2.5326-11.8583-8.2956-14.5463-3.5536-1.664-7.3631-1.9596-10.7734-2.182-.0284-.0025-.0569-.0025-.0853 0h-.1097c-3.4073.2255-7.2168.5211-10.7703 2.1851-5.7661 2.688-7.3874 7.9786-8.2987 14.5463-.3413 2.3923-.835 14.3024 0 18.2491.253 1.2191 1.6336 6.333 2.5021 7.9604 6.1684 11.5596 12.2058 12.1692 16.5303 12.2575h.1433.1432c4.3276-.0883 10.3619-.6979 16.5303-12.2575.8716-1.6274 2.2522-6.7413 2.5051-7.9604.8137-3.9497.3231-15.8598-.0213-18.2522z" fill="#a9b4c6"/><path d="m49.1703 20.2479c3.7897-1.5693 7.8511-2.3781 11.9528-2.3802 5.0339.0055 9.9684 1.4007 14.2598 4.032 6.4274 3.901 10.688 10.8922 11.5809 18.3192.4084 3.392.1677 7.0918-.9447 10.3406-.8381 2.4381-5.0286 7.4179-6.1623 3.3158-2.4381-8.8564-16.0944-2.4381-28.2514-19.6602-2.2247 2.1333-9.5909 5.824-11.9376 21.0773-.1645 1.0637-1.7828 2.3223-2.8921 2.5265-2.4717.448-3.8797-3.136-4.7878-7.3843-1.1307-5.2846.832-11.5231 3.0902-16.4389 2.7848-6.2034 7.8219-11.1174 14.0922-13.7478z" fill="#28213d"/><g fill="#a9b4c6"><path d="m41.0088 54.9176c-.3048-.9691-2.4381-6.0343-4.8031-4.035-1.3775 1.1611-1.1306 4.6598.1433 7.7653s4.6445 5.6381 5.1992 5.8362-.5394-9.5665-.5394-9.5665z"/><path d="m78.6317 54.9176c.3048-.9691 2.4381-6.0343 4.8031-4.035 1.3744 1.1611 1.1306 4.6598-.1463 7.7653-1.277 3.1055-4.6416 5.6381-5.1993 5.8362s.5425-9.5665.5425-9.5665z"/></g></g></svg>

<svg width="128" height="128" viewBox="0 0 128 128" fill="none" xmlns="http://www.w3.org/2000/svg">
<mask id="mask0_457_1643" style="mask-type:alpha" maskUnits="userSpaceOnUse" x="6" y="9" width="116" height="110">
<path fill-rule="evenodd" clip-rule="evenodd" d="M59.4286 9.20941C76.5273 8.78887 95.6107 10.0452 107.562 22.2918C120.535 35.5856 124.468 56.4228 118.716 74.0916C113.427 90.3364 96.0881 97.0683 80.7654 104.599C65.2109 112.243 48.5499 123.489 32.7651 116.333C16.7567 109.075 12.5499 89.3651 9.11259 72.1151C5.83427 55.6628 3.53921 37.2883 14.4825 24.581C25.1166 12.2327 43.1458 9.60989 59.4286 9.20941Z" fill="#EFF6F7"/>
</mask>
<g mask="url(#mask0_457_1643)">
<path fill-rule="evenodd" clip-rule="evenodd" d="M59.5881 13.503C76.6868 13.0825 95.6107 10.0452 107.562 22.2918C120.535 35.5857 124.468 56.4228 118.716 74.0917C113.427 90.3365 96.0881 97.0683 80.7654 104.599C65.2109 112.243 48.5499 123.489 32.7651 116.333C16.7567 109.075 12.5499 89.3651 9.11259 72.1151C5.83427 55.6628 3.53921 37.2883 14.4825 24.5811C25.1166 12.2328 43.3053 13.9035 59.5881 13.503Z" fill="#EFF6F7"/>
<path d="M100.678 96.8132C96.8655 94.8597 92.6995 93.5797 88.6736 92.1656C85.4217 91.0227 81.9231 90.2273 78.8633 88.5085C75.1696 86.4513 73.3776 83.1904 72.701 79.0608C71.8751 74.0597 72.3535 67.7329 72.3535 64.6791C72.3535 57.8433 66.237 54.3172 59.8187 53.5553C59.7967 53.5415 59.772 53.5325 59.7463 53.5288C59.7206 53.5252 59.6944 53.5269 59.6694 53.534C59.6176 53.534 59.5688 53.5188 59.517 53.5157C53.1018 54.302 46.9852 57.8433 46.9852 64.6791C46.9852 67.7268 47.4606 74.0566 46.6347 79.0578C46.0252 82.7637 44.2271 86.3721 40.8046 88.2006C36.3399 90.5808 31.2351 91.9218 26.4808 93.6193C23.8355 94.5671 21.1566 95.515 18.6515 96.798C10.5936 100.928 7.37526 109.214 6.26288 120.999H113.058C111.957 109.229 108.736 100.943 100.678 96.8132Z" fill="#A9B4C6"/>
<path d="M113.064 121.014H6.27203C7.38441 109.226 10.6058 100.94 18.6637 96.8102C21.1383 95.5332 23.8141 94.5854 26.429 93.6498C45.3547 104.655 68.5196 104.877 88.2651 96.0056C89.3806 95.5027 91.7608 93.6376 92.9311 93.6376C95.5849 94.5167 98.1753 95.5767 100.684 96.8102C108.733 100.949 111.963 109.235 113.064 121.014Z" fill="#FDD8F8"/>
<path d="M72.9813 80.3896C72.8808 79.9629 72.7863 79.5333 72.7132 79.0883C72.0336 74.9679 72.2378 69.9454 72.3292 66.5931C69.1627 66.526 63.0583 66.2029 59.6816 66.142C56.0762 66.0749 49.7128 67.6658 47.0766 68.1931C47.165 71.4144 47.2259 75.5652 46.6469 79.07C46.144 82.1176 44.8183 85.1073 42.4381 87.0822C56.5242 91.3885 68.5989 86.3325 72.9813 80.3896Z" fill="#51527A"/>
<path d="M52.2728 18.4163C54.7862 16.452 57.7587 15.1609 60.9097 14.6647C64.1433 14.2106 67.8278 14.6281 70.9669 15.4022C77.3361 17.001 82.8141 21.0547 86.205 26.6783C88.1738 29.982 90.0451 34.0658 90.6881 37.857C93.1871 52.5953 88.3841 66.5504 79.4728 71.9416C81.5178 72.8864 82.5205 74.6845 81.9993 76.8605C81.4782 79.0365 79.2565 81.0844 76.9738 81.9195C79.3936 82.4864 80.5547 84.0346 79.8141 86.5854C79.2199 88.6395 77.8454 89.4745 76.0808 90.6448C80.0427 91.2269 79.5429 95.7435 76.0504 97.4227C79.2047 101.034 77.6352 105.667 76.7513 107.538C75.8675 109.409 74.4656 110.982 73.3807 112.743C72.2957 114.505 71.9422 116.48 72.0824 118.628C70.1014 116.973 68.4252 113.234 68.1753 109.79C67.9315 106.62 68.2485 101.97 71.0827 98.8368C67.2671 99.4768 66.0328 95.8197 67.0416 94.1526C67.3089 93.6457 67.683 93.2028 68.1382 92.8545C68.5933 92.5061 69.1186 92.2607 69.6778 92.1351C68.0381 92.1534 65.4934 91.7359 64.9235 89.697C64.4847 88.1184 64.9448 86.2837 66.2461 85.2841C65.4058 84.8379 64.7014 84.1732 64.2073 83.3601C63.7132 82.547 63.4476 81.6157 63.4385 80.6642C63.4295 79.7128 63.6773 78.7766 64.1559 77.9543C64.6345 77.1319 65.3261 76.454 66.1578 75.9919C59.4805 74.9191 53.6168 71.0943 47.9787 67.361C45.3486 65.6178 42.493 63.5485 41.9079 60.4429C43.2488 65.4593 42.7703 71.1584 39.9086 75.4921C37.3029 79.4357 34.5052 79.3869 34.6027 79.2589C36.3947 76.9305 38.4763 70.622 35.9528 65.7123C33.0149 59.9949 29.0652 52.3698 29.7296 45.2567C30.7383 34.4285 36.8336 24.3805 46.2416 18.9313C48.0915 17.8586 50.3589 17.5142 52.1509 18.4254C52.1692 18.438 52.1913 18.444 52.2135 18.4423C52.2356 18.4406 52.2566 18.4314 52.2728 18.4163V18.4163Z" fill="#28213D"/>
<path d="M78.9852 43.8151C78.0709 37.2475 76.4526 31.9568 70.6896 29.2688C67.136 27.6048 63.3265 27.3092 59.9162 27.0868C59.8878 27.0843 59.8593 27.0843 59.8309 27.0868H59.7212C56.3139 27.3123 52.5044 27.6079 48.9509 29.2719C43.1848 31.9599 41.5635 37.2505 40.6522 43.8182C40.3109 46.2105 39.8172 58.1206 40.6522 62.0673C40.9052 63.2864 42.2858 68.4003 43.1543 70.0277C49.3227 81.5873 55.3601 82.1969 59.6846 82.2852H59.8279H59.9711C64.2987 82.1969 70.333 81.5873 76.5014 70.0277C77.373 68.4003 78.7536 63.2864 79.0065 62.0673C79.8202 58.1176 79.3296 46.2075 78.9852 43.8151Z" fill="#A9B4C6"/>
<path d="M49.1703 20.2479C52.96 18.6786 57.0214 17.8698 61.1231 17.8677C66.157 17.8732 71.0915 19.2684 75.3829 21.8997C81.8103 25.8007 86.0709 32.7919 86.9638 40.2189C87.3722 43.6109 87.1315 47.3107 86.0191 50.5595C85.181 52.9976 80.9905 57.9774 79.8568 53.8753C77.4187 45.0189 63.7624 51.4372 51.6054 34.2151C49.3807 36.3484 42.0145 40.0391 39.6678 55.2924C39.5033 56.3561 37.885 57.6147 36.7757 57.8189C34.304 58.2669 32.896 54.6829 31.9879 50.4346C30.8572 45.15 32.8199 38.9115 35.0781 33.9957C37.8629 27.7923 42.9 22.8783 49.1703 20.2479V20.2479Z" fill="#28213D"/>
<path d="M41.0088 54.9176C40.704 53.9485 38.5707 48.8833 36.2057 50.8826C34.8282 52.0437 35.0751 55.5424 36.349 58.6479C37.6229 61.7534 40.9935 64.286 41.5482 64.4841C42.1029 64.6822 41.0088 54.9176 41.0088 54.9176Z" fill="#A9B4C6"/>
<path d="M78.6317 54.9176C78.9365 53.9485 81.0698 48.8833 83.4348 50.8826C84.8092 52.0437 84.5654 55.5424 83.2885 58.6479C82.0115 61.7534 78.6469 64.286 78.0892 64.4841C77.5315 64.6822 78.6317 54.9176 78.6317 54.9176Z" fill="#A9B4C6"/>
</g>
</svg>
